docs/styles/img/icons/ig.svg

<svg width="27" height="27" viewBox="0 0 27 27" fill="none" xmlns="http://www.w3.org/2000/svg">
<path fill-rule="evenodd" clip-rule="evenodd" d="M0 13.5C0 6.04416 6.04416 0 13.5 0C20.9558 0 27 6.04416 27 13.5C27 20.9558 20.9558 27 13.5 27C6.04416 27 0 20.9558 0 13.5Z" fill="url(#paint0_linear)"/>
<mask id="mask0" mask-type="alpha" maskUnits="userSpaceOnUse" x="0" y="0" width="27" height="27">
<path fill-rule="evenodd" clip-rule="evenodd" d="M0 13.5C0 6.04416 6.04416 0 13.5 0C20.9558 0 27 6.04416 27 13.5C27 20.9558 20.9558 27 13.5 27C6.04416 27 0 20.9558 0 13.5Z" fill="white"/>
</mask>
<g mask="url(#mask0)">
<path fill-rule="evenodd" clip-rule="evenodd" d="M13.5005 6.2998C11.5451 6.2998 11.2997 6.30835 10.5316 6.34331C9.76514 6.37841 9.24194 6.49976 8.78413 6.67781C8.31058 6.86171 7.90887 7.10771 7.50867 7.50807C7.10816 7.90827 6.86216 8.30998 6.67766 8.78338C6.49916 9.24134 6.37766 9.76469 6.34316 10.5309C6.3088 11.2989 6.2998 11.5445 6.2998 13.4999C6.2998 15.4553 6.3085 15.7 6.34331 16.468C6.37856 17.2345 6.49991 17.7577 6.67781 18.2155C6.86186 18.689 7.10786 19.0907 7.50822 19.4909C7.90827 19.8914 8.30998 20.138 8.78323 20.3219C9.24133 20.5 9.76469 20.6214 10.531 20.6565C11.2991 20.6914 11.5443 20.7 13.4996 20.7C15.4551 20.7 15.6998 20.6914 16.4678 20.6565C17.2343 20.6214 17.7581 20.5 18.2162 20.3219C18.6896 20.138 19.0907 19.8914 19.4908 19.4909C19.8913 19.0907 20.1373 18.689 20.3218 18.2156C20.4988 17.7577 20.6203 17.2343 20.6563 16.4681C20.6908 15.7001 20.6998 15.4553 20.6998 13.4999C20.6998 11.5445 20.6908 11.2991 20.6563 10.531C20.6203 9.76454 20.4988 9.24134 20.3218 8.78353C20.1373 8.30998 19.8913 7.90827 19.4908 7.50807C19.0903 7.10756 18.6898 6.86156 18.2158 6.67781C17.7568 6.49976 17.2333 6.37841 16.4668 6.34331C15.6988 6.30835 15.4542 6.2998 13.4982 6.2998H13.5005ZM12.8546 7.59665C13.0463 7.59635 13.2602 7.59665 13.5005 7.59665C15.4229 7.59665 15.6507 7.60355 16.4099 7.63805C17.1119 7.67015 17.4929 7.78745 17.7467 7.886C18.0827 8.0165 18.3223 8.1725 18.5741 8.42451C18.8261 8.67651 18.9821 8.91651 19.1129 9.25252C19.2115 9.50602 19.3289 9.88702 19.3609 10.589C19.3954 11.348 19.4029 11.576 19.4029 13.4976C19.4029 15.4191 19.3954 15.6471 19.3609 16.4061C19.3288 17.1081 19.2115 17.4891 19.1129 17.7426C18.9824 18.0786 18.8261 18.3179 18.5741 18.5697C18.3221 18.8217 18.0829 18.9777 17.7467 19.1082C17.4932 19.2072 17.1119 19.3242 16.4099 19.3563C15.6509 19.3908 15.4229 19.3983 13.5005 19.3983C11.5779 19.3983 11.35 19.3908 10.591 19.3563C9.88902 19.3239 9.50802 19.2066 9.25407 19.1081C8.91806 18.9776 8.67806 18.8216 8.42606 18.5696C8.17406 18.3176 8.01805 18.0782 7.88725 17.742C7.7887 17.4885 7.67125 17.1075 7.6393 16.4055C7.6048 15.6465 7.5979 15.4185 7.5979 13.4958C7.5979 11.573 7.6048 11.3462 7.6393 10.5872C7.6714 9.88522 7.7887 9.50422 7.88725 9.25042C8.01775 8.91441 8.17406 8.67441 8.42606 8.42241C8.67806 8.1704 8.91806 8.0144 9.25407 7.8836C9.50787 7.7846 9.88902 7.6676 10.591 7.63535C11.2552 7.60535 11.5126 7.59635 12.8546 7.59485V7.59665ZM17.3438 8.79266C16.8668 8.79266 16.4798 9.17921 16.4798 9.65637C16.4798 10.1334 16.8668 10.5204 17.3438 10.5204C17.8208 10.5204 18.2078 10.1334 18.2078 9.65637C18.2078 9.17936 17.8208 8.79236 17.3438 8.79236V8.79266ZM13.5007 9.802C11.4587 9.802 9.80313 11.4576 9.80313 13.4995C9.80313 15.5415 11.4587 17.1963 13.5007 17.1963C15.5426 17.1963 17.1976 15.5415 17.1976 13.4995C17.1976 11.4576 15.5425 9.802 13.5005 9.802H13.5007ZM13.5004 11.0995C14.8258 11.0995 15.9004 12.1739 15.9004 13.4995C15.9004 14.8249 14.8258 15.8995 13.5004 15.8995C12.1748 15.8995 11.1003 14.8249 11.1003 13.4995C11.1003 12.1739 12.1748 11.0995 13.5004 11.0995Z" fill="white"/>
</g>
<defs>
<linearGradient id="paint0_linear" x1="22.3269" y1="1.55769" x2="7.78846" y2="23.8846" gradientUnits="userSpaceOnUse">
<stop stop-color="#536DE8"/>
<stop offset="0.366894" stop-color="#A84CA7"/>
<stop offset="0.751381" stop-color="#FC3436"/>
<stop offset="1" stop-color="#FFA10D"/>
</linearGradient>
</defs>
</svg>

<svg width="27" height="27" fill="none" xmlns="http://www.w3.org/2000/svg"><path fill-rule="evenodd" clip-rule="evenodd" d="M0 13.5C0 6.044 6.044 0 13.5 0S27 6.044 27 13.5 20.956 27 13.5 27 0 20.956 0 13.5z" fill="url(#paint0_linear)"/><mask id="a" maskUnits="userSpaceOnUse" x="0" y="0" width="27" height="27"><path fill-rule="evenodd" clip-rule="evenodd" d="M0 13.5C0 6.044 6.044 0 13.5 0S27 6.044 27 13.5 20.956 27 13.5 27 0 20.956 0 13.5z" fill="#fff"/></mask><g mask="url(#a)"><path fill-rule="evenodd" clip-rule="evenodd" d="M13.5 6.3c-1.955 0-2.2.008-2.968.043-.767.035-1.29.157-1.748.335-.473.184-.875.43-1.275.83-.4.4-.647.802-.831 1.275-.179.458-.3.982-.335 1.748-.034.768-.043 1.013-.043 2.969 0 1.955.009 2.2.043 2.968.036.767.157 1.29.335 1.747.184.474.43.876.83 1.276.4.4.802.647 1.275.83.458.179.982.3 1.748.335.768.035 1.013.044 2.969.044 1.955 0 2.2-.009 2.968-.043.766-.036 1.29-.157 1.748-.335.474-.184.875-.43 1.275-.831.4-.4.646-.802.83-1.275.178-.458.3-.982.335-1.748.035-.768.044-1.013.044-2.968 0-1.956-.01-2.2-.044-2.969-.036-.766-.157-1.29-.334-1.747a3.534 3.534 0 00-.831-1.276c-.4-.4-.801-.646-1.275-.83-.46-.178-.983-.3-1.75-.335-.767-.035-1.012-.043-2.968-.043h.003zm-.645 1.297h.646c1.922 0 2.15.007 2.909.041.702.032 1.083.15 1.337.248.336.13.575.286.827.539.252.252.408.492.539.828.099.253.216.634.248 1.336.034.759.042.987.042 2.909 0 1.921-.008 2.15-.042 2.908-.032.702-.15 1.083-.248 1.337-.13.336-.287.575-.539.827a2.226 2.226 0 01-.827.538c-.254.1-.635.216-1.337.248-.76.035-.987.042-2.91.042-1.922 0-2.15-.007-2.909-.042-.702-.032-1.083-.15-1.337-.248a2.23 2.23 0 01-.828-.538 2.231 2.231 0 01-.539-.828c-.098-.254-.216-.634-.248-1.337-.034-.759-.041-.987-.041-2.91 0-1.922.007-2.149.041-2.908.032-.702.15-1.083.248-1.337a2.23 2.23 0 01.54-.828c.251-.252.491-.408.827-.538.254-.1.635-.216 1.337-.249.664-.03.922-.039 2.264-.04v.002zm4.489 1.196a.864.864 0 100 1.728.864.864 0 000-1.729zM13.5 9.802a3.698 3.698 0 100 7.395 3.698 3.698 0 000-7.395zm0 1.298a2.4 2.4 0 110 4.8 2.4 2.4 0 010-4.8z" fill="#fff"/></g><defs><linearGradient id="paint0_linear" x1="22.327" y1="1.558" x2="7.788" y2="23.885" gradientUnits="userSpaceOnUse"><stop stop-color="#536DE8"/><stop offset=".367" stop-color="#A84CA7"/><stop offset=".751" stop-color="#FC3436"/><stop offset="1" stop-color="#FFA10D"/></linearGradient></defs></svg>
